X:90
T:One Night in Sligo
R:jig
H:I put the name on it. Does anyone know the real name?
Z:id:hn-jig-90
M:6/8
K:Edor
~E3 ~B3|~e3 dBA|B2e dBA|~B3 AGF|~E3 ~B3|~e3 dBA|B2e dBA|GFD E3:|
|:e2b bag|aga bgd|e2b bag|~a3 gfd|~e3 bag|~a3 ~f3|~g3 fed|1 Bed e2d:|2 ~B3 AGF||

